X:1
T:Title
%%score ( 1 2 ) 3
L:1/8
Q:1/4=95
M:6/8
K:F
V:1 treble nm="Grand Piano, Soprano"
V:2 treble 
V:3 bass nm="Choir Pad, Always and All for Jesus"
V:1
 [Ac][Ac][Ac] [Ac][_A=B][=Ac] | [Bd][Ac][_A=B] .[=Ac]3 | [FA][FA][FA] [FB]2 [FA] | [FA]3 .[EG]3 | %4
w: By~Joseph~Henry~Keagle * * * * *||||
 [GB][GB][GB] [GB][^FA][GB] | [ce][ce][Bd] .[Ac]3 | [EB][EB][EB] [Ec]2 [EB] | [GB]3 .[FA]3 | %8
w: ||||
 [Ac][Ac][Ac] [Ac][_A=B][=Ac] | [Bd][Ac][_A=B] .[=Ac]3 | [FA][FA][Ac] [Af]2 [Ae] | [Be]3 .[Bd]3 | %12
w: ||||
 [EG][EG][GB] [ce][Bd][Bd] | [Bd][Ac][_A=B] .[=Ac]3 | C[CD][CE] [CB]2 [CE] | [CG]3 .[CF]3 | %16
w: ||||
 [Ac][Ac][Ac] [_A=B]2 [=Ac] | [_Ad]3 .[=Ac]3 | [FA][FA][FA] [FA]2 [FA] | [EG]6 | %20
w: ||||
 [GB][GB][GB] [^FA]2 [GB] | [ce]3 .[Bd]3 | [GB][GB][GB] [Ac]2 [GB] | [FA]6 | %24
w: ||||
 [Ac][Ac][Ac] [_A=B]2 [=Ac] | [_Ad]3 .[=Ac]3 | [FA][GB][Ac] [df]2 [ce] | [Bd]3- [Bd]3/2 z/ [Bd] | %28
w: ||||
 [Bd][Bd][Bd] [Ac][Ac][Ac] | [GB][GB][GB] [^FA]2 [FA] | GCD/E/ [FA]2 G/-[CG]/ | [CF]6- | %32
w: ||||
 [CF]3 z3 |] %33
w: |
V:2
 x6 | x6 | x6 | x6 | x6 | x6 | x6 | x6 | x6 | x6 | x6 | x6 | x6 | x6 | x6 | x6 | x6 | x6 | x6 | %19
 x6 | x6 | x6 | x6 | x6 | x6 | x6 | x6 | x6 | x6 | x6 | z3 z2 .E | x6 | x6 |] %33
V:3
 z6 | z6 | [F,C][F,C][F,C] [F,D]2 [F,C] | [C,C]3 .[C,C]3 | z6 | z6 | %6
 [C,G,][C,G,][C,G,] [C,G,]2 [C,C] | [E,C]3 .[F,C]3 | z6 | z6 | [F,C][F,C][F,C] [F,C]2 [F,C] | %11
 [B,,B,]3 .[B,,B,]3 | z6 | z6 | [C,B,][C,B,][C,B,] [C,G,]2 [C,B,] | [C,B,]3 .[F,A,]3 | %16
 [F,C][F,C][F,C] [F,D]2 [F,C] | [F,=B,]2 [F,B,] [F,C]2 [F,C] | [F,C][F,C][F,C] [F,D]2 [F,C] | %19
 [C,C]2 [C,C] .[C,C]3 | [C,C][C,C][C,C] [C,C]2 [C,C] | [C,C]2 [C,C] [C,C]2 [C,C] | %22
 [E,C][E,C][E,C] [C,C]2 [E,C] | [F,C]2 [F,C] .[F,C]3 | [F,C][F,C][F,C] [F,D]2 [F,C] | %25
 [F,=B,]2 [F,B,] [F,C]2 [F,C] | [F,C][F,C][F,C] [B,,B,]2 [B,,B,] | %27
 [B,,B,]2 [B,,B,] [B,,B,]2 [B,D] | [B,D][B,D][B,D] [A,C][A,C][A,C] | %29
 [G,B,][G,B,][G,B,] [^F,A,]2 [F,A,] | G,C,D,/E,/ [C,C]2 [C,B,] | [F,A,]6- | [F,A,]3 z3 |] %33

